X: 10474
T: Donna Donna
R: barndance
M: 4/4
K: Eminor
B2 E2 FG A2|B2 E2 FG A2|B2 E2 c2 BA|1 ) G2 A2 B4:|
[2 G2 F2 E4||d2 d3 d d2|c2 B3 A G2|A2 A3 A d2|dc HB2 d3 d|
d2 c2 B2 A2|HG2 A2 B3 F|G2 F2 E4||F2 F2 F2 F2|A2 A2 GA B2|
A2 A2 A2 A2|d2 dc B4|F2 F2 F2 F2|A2 A2 GA HB2|
B2 F2 G2 A2|G2 F2 E4||

